X:1009
T:Reel de l'h\^otelier
T:Reel \`a R\'emi
T:Galope
T:Chamberlain's
R:reel
O:Quebec
Z:id:hn-reel-1009
M:C|
L:1/8
K:D
AG | FDDD DFA=c | BGGG G2ed | cAAA Aceg |1 f2ec dB :|2 f2ec d2ef ||
|: gagf g2b2 | abaf d2fa | gece Aceg |1 f2ec d2ef :|2 f2ec dB ||

